X:1
T:MISS C. ELPHINSTONE
T:MISS C. ELPHINSTONE
T:DUNCAN MACINTYRE
C:DUNCAN MACINTYRE
%%score 1 2
L:1/8
M:4/4
K:A
V:1 treble 
V:2 bass 
V:1
 c |{G} A2 EF/G/ A/G/F/E/ AC | D<F E>C B,/B,/B, B,>d | (c/d/e) Ac d/e/f/d/ Bd | c<e B>c A/A/A A :| %5
 f/g/ | a/g/f/e/ ca db ca | Aa ca B/B/B Bf/g/ | a/g/f/e/ ca db ca | fd/c/ Be/d/ cA A f/g/ | %10
 a/g/f/e/ ca db ca | Aa ca f/e/d/c/ B/c/d/f/ | e/d/c/B/ AE FA Df | e<c a>c A/A/A A |] %14
V:2
 z | A,,2 [E,A,C]2 [E,A,C]2 [E,A,C]2 | [D,F,A,]2 [A,,E,A,]2 [E,G,]2 [E,G,B,]2 | %3
 A,,2 [E,A,C]2 B,,2 [D,F,B,]2 | E,2 [E,G,D]2 [A,C]2 [A,,E,A,] :| z | %6
 A,,2 [E,A,C]2 [E,G,B,]2 [E,A,C]2 | A,,2 [E,A,C]2 E,,2 [E,G,B,]2 | %8
 A,,2 [E,A,C]2 [E,G,B,]2 [E,A,C]2 | [D,F,B,]2 [E,G,D]2 A,,2 [E,A,C]2 | %10
 A,,2 [E,A,C]2 [E,G,B,]2 [E,A,C]2 | A,,2 [E,A,C]2 D,2 [D,F,B,]2 | C,2 [C,E,A,]2 D,2 [D,F,A,]2 | %13
 E,2 [E,A,C]2 [E,A,C]2 [A,,E,A,] |] %14

